X:27
T:Quand j'tais chez mon pre
O:France
A:Auvergne
R:Bourre  3 temps
M:3/4
K:C
C/2D/2|EEE|ECC/2D/2|EEE|D2D/2E/2|FFF|EEE/2E/2|DDD|C2G|
G2F|E2E|DDD|ECG|G2F|E2E|DDD|C2||
W:Quand j'tais chez mon pre
W:Apprenti pastoureau
W:Il m'a mis dans la lande
W:Pour garder les troupiaux
W:Troupiaux, troupiaux
W:Je n'en avais gure
W:Troupiaux, troupiaux
W:Je n'en avais biaux.
